svg/emoji_u1f95d.svg

<?xml version="1.0" encoding="utf-8"?>
<!-- Generator: Adobe Illustrator 25.2.3, SVG Export Plug-In . SVG Version: 6.00 Build 0)  -->
<svg version="1.1" id="Layer_3" xmlns="http://www.w3.org/2000/svg" xmlns:xlink="http://www.w3.org/1999/xlink" x="0px" y="0px"
	 viewBox="0 0 128 128" style="enable-background:new 0 0 128 128;" xml:space="preserve">
<path style="fill:#95683D;" d="M4.26,68.9c1.32,19.7,23.47,50.9,61.03,53.42c25.67,1.73,50.47-10.35,55.84-38.81
	c4.94-26.16-5.08-50.79-13.05-61.82c-12.44-17.21-41.61-27-72.78-8.65C7.27,29.57,3.24,53.63,4.26,68.9z"/>
<path style="fill:#B7D118;" d="M11.96,79.54c13.59,25,53.43,26.68,75.06,9.53c23.75-18.83,29.28-46.31,16.38-65.51
	C88.42,1.27,53.91,4.45,32.82,19.14C12.13,33.56,1.7,60.67,11.96,79.54z"/>
<path style="fill:#E5DDA0;" d="M39.2,49.54c-0.79,2.38,2.35,4.36,1.87,8.98c-0.7,6.65-5.27,10.48-3.97,11.78
	c1.63,1.63,6.49-1.43,12.72-2.57c7-1.28,8.17,1.91,10.03,0.93c2.22-1.17,1.08-6.34,5.6-10.38c4.43-3.97,8.75-4.08,9.57-5.37
	c0.82-1.28-0.7-5.02,0.35-9.57c1.05-4.55,4.82-8.68,3.54-10.43c-1.28-1.75-6.53,3.27-12.52,2.96c-3.96-0.2-6.07-2.1-7.7-1.28
	s-2.36,5.9-7,9.92C45.61,49.78,39.78,47.79,39.2,49.54z"/>
<path style="fill:#7FB240;" d="M79.75,14.17c-3.35-1.5-5.69,5.78-6.99,8.39c-1.3,2.61-3.97,7.73-1.21,9.13
	c2.35,1.2,5.87-6.71,7.08-9.13C79.85,20.14,82.61,15.45,79.75,14.17z"/>
<path style="fill:#7FB240;" d="M83.39,27.41c1.16,1.35,3.55-0.21,5.46-1.84c1.86-1.58,2.47-3.59,1.62-4.69
	c-1.3-1.68-2.98-1.3-5.31,0.93C83.45,23.46,81.71,25.45,83.39,27.41z"/>
<path style="fill:#7FB240;" d="M81.62,35.98c0.64,2.72,7.62,1.02,12.71,0c6.06-1.21,10.38-1.79,9.75-5.22
	c-0.7-3.78-6.73-1.71-11.27-0.57C85.07,32.12,80.83,32.61,81.62,35.98z"/>
<path style="fill:#7FB240;" d="M78.95,45.73c0.49,3.51,9.41,1.86,16.96,1.77c6.62-0.08,11.06-0.63,10.72-3.54
	c-0.36-3.04-6-2.45-12.33-1.98C87.95,42.44,78.38,41.73,78.95,45.73z"/>
<path style="fill:#7FB240;" d="M81.49,53.95c-1.05,2.9,1.52,3.64,7.55,6.33c4.46,1.98,8.15,4.3,9.35,1.24
	c1.08-2.75-2.89-4.31-6.33-5.91C86.47,52.99,82.56,51.01,81.49,53.95z"/>
<path style="fill:#7FB240;" d="M73.9,57.26c-3.01,3.87,4.45,7.71,9.86,11.9c5.44,4.22,9.68,7.26,11.42,4.61
	c1.79-2.74-3.5-5.91-8.16-9.27C82.36,61.15,75.55,55.13,73.9,57.26z"/>
<path style="fill:#7FB240;" d="M66.44,65.73c-1.91,1.45-1.17,3.14,1.68,6.79c2.98,3.82,5.25,6.71,6.18,7.83s4.09,5.49,6.5,3.75
	c2.6-1.88-0.66-5.79-1.59-7.1c-0.93-1.3-7-8.84-8.59-10.52S67.75,64.73,66.44,65.73z"/>
<path style="fill:#7FB240;" d="M57.85,72.98c-1.81,0.65-2.19,2.7-0.98,8.57c1.08,5.23,1.82,6.62,2.57,9.04
	c0.28,0.91,1.39,5,4.28,4.17c2.38-0.69,0.66-5.89,0.2-8.17C63.24,83.25,60.18,72.14,57.85,72.98z"/>
<path style="fill:#7FB240;" d="M50.21,70.93c-2.7-0.65-3.51,4.24-4,10.01c-0.37,4.38-0.91,9.21,2.03,9.29
	c3.49,0.09,3.34-5.23,3.63-9.25C52.24,75.95,52.48,71.48,50.21,70.93z"/>
<path style="fill:#7FB240;" d="M33,93.91c3.4,1.37,5.27-4.26,6.7-7.83c1.86-4.66,3.36-7.85,3.92-9.25c0.5-1.24,0.21-3.59-1.93-4.34
	c-2.14-0.75-3.46,3.02-5.05,6.46S29.58,92.54,33,93.91z"/>
<path style="fill:#7FB240;" d="M23,87.36c2.55,1.84,4.05-0.89,6.94-4.53c2.89-3.63,6.98-8.02,4.48-9.72
	c-2.22-1.51-5.17,2.76-7.6,5.75C24.39,81.84,20.21,85.34,23,87.36z"/>
<path style="fill:#7FB240;" d="M13.98,74.95c0.91,2.67,4.82,1.11,9.29-0.47s12.58-3.66,11.37-6.79c-0.74-1.91-6.77,0.11-12.36,1.7
	C19.5,70.17,12.76,71.36,13.98,74.95z"/>
<path style="fill:#7FB240;" d="M13.94,59.47c0.26,3.35,5.5,2.65,11.46,2.93c10.36,0.48,12.77,0.07,12.83-2.26
	c0.09-3.54-6.33-2.83-13.16-3.35C19.61,56.37,13.61,55.27,13.94,59.47z"/>
<path style="fill:#7FB240;" d="M19.76,44c-1,2.36,0.72,4.05,6.45,6.05c6.28,2.19,8.88,3.3,10.06,0.81c1.18-2.49-3.41-3.98-8.12-5.93
	C25.99,44.04,20.95,41.2,19.76,44z"/>
<path style="fill:#7FB240;" d="M24.13,33.01c-2.01,2.75,1.22,4.98,6.43,8.19c5.17,3.18,9.96,6.77,11.97,3.75
	c1.79-2.69-5.7-6.96-8.96-8.96S25.77,30.75,24.13,33.01z"/>
<path style="fill:#7FB240;" d="M38,20.93c-1.7,1.1-1.2,4,2.51,9.57s5.96,9.83,8.76,8.6c2.53-1.11-1.31-7.77-3.45-11.37
	C43.73,24.19,40.78,19.13,38,20.93z"/>
<path style="fill:#7FB240;" d="M52.53,14.65c-2.21,0.35-2.62,3.73-1.54,8.86c1.16,5.53,2.37,10.59,4.89,9.92
	c2.53-0.67,1.75-5.94,0.9-11.65C56.3,18.6,55.35,14.21,52.53,14.65z"/>
<path style="fill:#7FB240;" d="M67.91,11.49c-2.64-0.37-3.66,1.96-4.62,7.83c-0.97,5.87-2.45,11.02,0.28,12.22
	c2.89,1.27,4.53-8.09,5.38-12.08C69.59,16.43,70.93,11.92,67.91,11.49z"/>
<path style="fill:#303030;" d="M65.63,25.23c-2.67-0.67-4.01,1.38-4.39,4.04s0.56,4.02,2.05,4.3c1.79,0.33,3.06-0.71,3.73-3.09
	C67.7,28.1,67.39,25.68,65.63,25.23z"/>
<path style="fill:#303030;" d="M70.74,32.63c1.48,0.77,3.16-0.09,3.92-1.89c0.44-1.05,0.73-3.52-0.94-4.25
	c-1.84-0.8-3.21,0.09-3.92,1.98C69.23,29.99,69.28,31.87,70.74,32.63z"/>
<path style="fill:#303030;" d="M82.35,28.38c1.3,1.09,3.02,0.47,3.92-0.42c0.71-0.71,1.27-2.36,0.14-3.59
	c-1.13-1.23-2.97-0.75-3.77,0.09C81.83,25.32,80.88,27.16,82.35,28.38z"/>
<path style="fill:#303030;" d="M88.2,34.23c0.39,1.85-1.09,3.21-3.44,3.63c-2.36,0.42-3.54-0.38-3.87-1.84
	c-0.33-1.46,0.75-2.97,2.45-3.49C85.04,32.01,87.73,32.01,88.2,34.23z"/>
<path style="fill:#303030;" d="M78.69,45.73c0.09,2.17,2.36,2.7,4.06,2.55c2.17-0.19,3.87-1.18,3.82-2.88s-1.63-2.74-4.06-2.69
	C80.43,42.76,78.58,43.37,78.69,45.73z"/>
<path style="fill:#303030;" d="M80.65,53.48c-0.73,1.52,0.09,2.97,1.84,3.73c1.75,0.75,4.1,0.24,4.43-1.23
	c0.33-1.46-0.47-3.11-2.45-3.63C82.49,51.83,81.26,52.21,80.65,53.48z"/>
<path style="fill:#303030;" d="M72.53,56.83c-1.24,1.49-0.61,3.26,1.32,5s4.22,1.91,5.38,0.57c1.46-1.7-0.19-4.06-1.84-5.38
	C75.74,55.7,73.48,55.7,72.53,56.83z"/>
<path style="fill:#303030;" d="M64.37,63.53c-1.86,1.6-0.71,3.92,0.66,5.61c1.37,1.7,3.63,2.36,5.05,1.13
	c1.42-1.23,1.23-3.63-0.94-5.76C67.39,62.81,65.69,62.4,64.37,63.53z"/>
<path style="fill:#303030;" d="M56.82,70.51c-2.08,0.6-1.89,2.78-1.46,4.53c0.42,1.75,2.09,3.19,3.63,2.64
	c1.6-0.57,2.03-1.89,1.56-4.15S58.29,70.09,56.82,70.51z"/>
<path style="fill:#303030;" d="M50.69,69c-1.71-0.16-2.78,1.09-3.3,3.21c-0.52,2.12,0.52,4.01,2.26,4.2s3.07-1.46,3.21-3.73
	S52.2,69.14,50.69,69z"/>
<path style="fill:#303030;" d="M43.24,71.46c-2.4-1.17-3.96,1.18-4.53,2.41s-1.09,4.1,0.85,4.95c1.93,0.85,3.65-1.09,4.34-2.64
	C44.65,74.48,44.89,72.26,43.24,71.46z"/>
<path style="fill:#303030;" d="M31.49,76.5c1.51,1.51,3.48-0.26,3.92-0.8c0.71-0.9,0.72-2.37,0-3.16c-0.94-1.04-2.45-0.61-3.4,0.14
	C31.06,73.44,30.31,75.32,31.49,76.5z"/>
<path style="fill:#303030;" d="M32.24,66.64c-1.26,0.22-2.74,1.18-2.41,2.78s1.7,2.08,3.35,1.75c1.65-0.33,2.55-1.84,2.36-3.02
	C35.36,66.97,33.56,66.41,32.24,66.64z"/>
<path style="fill:#303030;" d="M30.26,60.09c-0.08,1.84,1.61,2.67,4.15,2.88c3.44,0.28,4.87-1.05,4.91-3.16
	c0.04-1.94-1.75-2.88-4.53-2.83S30.36,57.92,30.26,60.09z"/>
<path style="fill:#303030;" d="M32,48.86c-0.88,1.37,0.05,3.73,2.04,3.96c2,0.23,3.46-1.59,2.8-3.54
	C36.18,47.32,33.27,46.89,32,48.86z"/>
<path style="fill:#303030;" d="M35.78,40.74c-1.27,2.08,0.19,4.01,2.83,5.24c2.3,1.07,4.06,0.85,4.95-0.52
	c0.9-1.37,0.19-3.49-1.89-4.81C39.28,39.12,37,38.76,35.78,40.74z"/>
<path style="fill:#303030;" d="M46.49,34.04c-1.19,0.66-2.27,2.55-0.28,5.28c1.37,1.89,3.49,2.22,4.58,1.6
	c0.94-0.53,1.46-3.02,0.24-4.91C49.99,34.44,48.1,33.15,46.49,34.04z"/>
<path style="fill:#303030;" d="M54.84,27.67c-1.61,0.22-2.31,2.5-1.75,4.15c0.52,1.51,1.65,2.55,3.26,2.22
	c1.6-0.33,1.75-2.59,1.6-3.44C57.81,29.75,56.96,27.39,54.84,27.67z"/>
</svg>

<?xml version="1.0" encoding="UTF-8" standalone="no"?>
<!DOCTYPE svg PUBLIC "-//W3C//DTD SVG 1.1//EN" "http://www.w3.org/Graphics/SVG/1.1/DTD/svg11.dtd">
<svg width="100%" height="100%" viewBox="0 0 128 128" version="1.1" xmlns="http://www.w3.org/2000/svg" xmlns:xlink="http://www.w3.org/1999/xlink" xml:space="preserve" xmlns:serif="http://www.serif.com/" style="fill-rule:evenodd;clip-rule:evenodd;stroke-linejoin:round;stroke-miterlimit:2;">
    <path d="M4.26,68.9C5.58,88.6 27.73,119.8 65.29,122.32C90.96,124.05 115.76,111.97 121.13,83.51C126.07,57.35 116.05,32.72 108.08,21.69C95.64,4.48 66.47,-5.31 35.3,13.04C7.27,29.57 3.24,53.63 4.26,68.9Z" style="fill:rgb(133,92,82);fill-rule:nonzero;"/>
    <path d="M11.96,79.54C25.55,104.54 65.39,106.22 87.02,89.07C110.77,70.24 116.3,42.76 103.4,23.56C88.42,1.27 53.91,4.45 32.82,19.14C12.13,33.56 1.7,60.67 11.96,79.54Z" style="fill:rgb(204,215,97);fill-rule:nonzero;"/>
    <path d="M39.2,49.54C38.41,51.92 41.55,53.9 41.07,58.52C40.37,65.17 35.8,69 37.1,70.3C38.73,71.93 43.59,68.87 49.82,67.73C56.82,66.45 57.99,69.64 59.85,68.66C62.07,67.49 60.93,62.32 65.45,58.28C69.88,54.31 74.2,54.2 75.02,52.91C75.84,51.63 74.32,47.89 75.37,43.34C76.42,38.79 80.19,34.66 78.91,32.91C77.63,31.16 72.38,36.18 66.39,35.87C62.43,35.67 60.32,33.77 58.69,34.59C57.06,35.41 56.33,40.49 51.69,44.51C45.61,49.78 39.78,47.79 39.2,49.54Z" style="fill:rgb(237,240,199);fill-rule:nonzero;"/>
    <path d="M79.75,14.17C76.4,12.67 74.06,19.95 72.76,22.56C71.46,25.17 68.79,30.29 71.55,31.69C73.9,32.89 77.42,24.98 78.63,22.56C79.85,20.14 82.61,15.45 79.75,14.17Z" style="fill:rgb(124,179,66);fill-rule:nonzero;"/>
    <path d="M83.39,27.41C84.55,28.76 86.94,27.2 88.85,25.57C90.71,23.99 91.32,21.98 90.47,20.88C89.17,19.2 87.49,19.58 85.16,21.81C83.45,23.46 81.71,25.45 83.39,27.41Z" style="fill:rgb(124,179,66);fill-rule:nonzero;"/>
    <path d="M81.62,35.98C82.26,38.7 89.24,37 94.33,35.98C100.39,34.77 104.71,34.19 104.08,30.76C103.38,26.98 97.35,29.05 92.81,30.19C85.07,32.12 80.83,32.61 81.62,35.98Z" style="fill:rgb(124,179,66);fill-rule:nonzero;"/>
    <path d="M78.95,45.73C79.44,49.24 88.36,47.59 95.91,47.5C102.53,47.42 106.97,46.87 106.63,43.96C106.27,40.92 100.63,41.51 94.3,41.98C87.95,42.44 78.38,41.73 78.95,45.73Z" style="fill:rgb(124,179,66);fill-rule:nonzero;"/>
    <path d="M81.49,53.95C80.44,56.85 83.01,57.59 89.04,60.28C93.5,62.26 97.19,64.58 98.39,61.52C99.47,58.77 95.5,57.21 92.06,55.61C86.47,52.99 82.56,51.01 81.49,53.95Z" style="fill:rgb(124,179,66);fill-rule:nonzero;"/>
    <path d="M73.9,57.26C70.89,61.13 78.35,64.97 83.76,69.16C89.2,73.38 93.44,76.42 95.18,73.77C96.97,71.03 91.68,67.86 87.02,64.5C82.36,61.15 75.55,55.13 73.9,57.26Z" style="fill:rgb(124,179,66);fill-rule:nonzero;"/>
    <path d="M66.44,65.73C64.53,67.18 65.27,68.87 68.12,72.52C71.1,76.34 73.37,79.23 74.3,80.35C75.23,81.47 78.39,85.84 80.8,84.1C83.4,82.22 80.14,78.31 79.21,77C78.28,75.7 72.21,68.16 70.62,66.48C69.03,64.8 67.75,64.73 66.44,65.73Z" style="fill:rgb(124,179,66);fill-rule:nonzero;"/>
    <path d="M57.85,72.98C56.04,73.63 55.66,75.68 56.87,81.55C57.95,86.78 58.69,88.17 59.44,90.59C59.72,91.5 60.83,95.59 63.72,94.76C66.1,94.07 64.38,88.87 63.92,86.59C63.24,83.25 60.18,72.14 57.85,72.98Z" style="fill:rgb(124,179,66);fill-rule:nonzero;"/>
    <path d="M50.21,70.93C47.51,70.28 46.7,75.17 46.21,80.94C45.84,85.32 45.3,90.15 48.24,90.23C51.73,90.32 51.58,85 51.87,80.98C52.24,75.95 52.48,71.48 50.21,70.93Z" style="fill:rgb(124,179,66);fill-rule:nonzero;"/>
    <path d="M33,93.91C36.4,95.28 38.27,89.65 39.7,86.08C41.56,81.42 43.06,78.23 43.62,76.83C44.12,75.59 43.83,73.24 41.69,72.49C39.55,71.74 38.23,75.51 36.64,78.95C35.05,82.39 29.58,92.54 33,93.91Z" style="fill:rgb(124,179,66);fill-rule:nonzero;"/>
    <path d="M23,87.36C25.55,89.2 27.05,86.47 29.94,82.83C32.83,79.2 36.92,74.81 34.42,73.11C32.2,71.6 29.25,75.87 26.82,78.86C24.39,81.84 20.21,85.34 23,87.36Z" style="fill:rgb(124,179,66);fill-rule:nonzero;"/>
    <path d="M13.98,74.95C14.89,77.62 18.8,76.06 23.27,74.48C27.74,72.9 35.85,70.82 34.64,67.69C33.9,65.78 27.87,67.8 22.28,69.39C19.5,70.17 12.76,71.36 13.98,74.95Z" style="fill:rgb(124,179,66);fill-rule:nonzero;"/>
    <path d="M13.94,59.47C14.2,62.82 19.44,62.12 25.4,62.4C35.76,62.88 38.17,62.47 38.23,60.14C38.32,56.6 31.9,57.31 25.07,56.79C19.61,56.37 13.61,55.27 13.94,59.47Z" style="fill:rgb(124,179,66);fill-rule:nonzero;"/>
    <path d="M19.76,44C18.76,46.36 20.48,48.05 26.21,50.05C32.49,52.24 35.09,53.35 36.27,50.86C37.45,48.37 32.86,46.88 28.15,44.93C25.99,44.04 20.95,41.2 19.76,44Z" style="fill:rgb(124,179,66);fill-rule:nonzero;"/>
    <path d="M24.13,33.01C22.12,35.76 25.35,37.99 30.56,41.2C35.73,44.38 40.52,47.97 42.53,44.95C44.32,42.26 36.83,37.99 33.57,35.99C30.31,33.99 25.77,30.75 24.13,33.01Z" style="fill:rgb(124,179,66);fill-rule:nonzero;"/>
    <path d="M38,20.93C36.3,22.03 36.8,24.93 40.51,30.5C44.22,36.07 46.47,40.33 49.27,39.1C51.8,37.99 47.96,31.33 45.82,27.73C43.73,24.19 40.78,19.13 38,20.93Z" style="fill:rgb(124,179,66);fill-rule:nonzero;"/>
    <path d="M52.53,14.65C50.32,15 49.91,18.38 50.99,23.51C52.15,29.04 53.36,34.1 55.88,33.43C58.41,32.76 57.63,27.49 56.78,21.78C56.3,18.6 55.35,14.21 52.53,14.65Z" style="fill:rgb(124,179,66);fill-rule:nonzero;"/>
    <path d="M67.91,11.49C65.27,11.12 64.25,13.45 63.29,19.32C62.32,25.19 60.84,30.34 63.57,31.54C66.46,32.81 68.1,23.45 68.95,19.46C69.59,16.43 70.93,11.92 67.91,11.49Z" style="fill:rgb(124,179,66);fill-rule:nonzero;"/>
    <path d="M65.63,25.23C62.96,24.56 61.62,26.61 61.24,29.27C60.86,31.93 61.8,33.29 63.29,33.57C65.08,33.9 66.35,32.86 67.02,30.48C67.7,28.1 67.39,25.68 65.63,25.23Z" style="fill:rgb(33,33,33);fill-rule:nonzero;"/>
    <path d="M70.74,32.63C72.22,33.4 73.9,32.54 74.66,30.74C75.1,29.69 75.39,27.22 73.72,26.49C71.88,25.69 70.51,26.58 69.8,28.47C69.23,29.99 69.28,31.87 70.74,32.63Z" style="fill:rgb(33,33,33);fill-rule:nonzero;"/>
    <path d="M82.35,28.38C83.65,29.47 85.37,28.85 86.27,27.96C86.98,27.25 87.54,25.6 86.41,24.37C85.28,23.14 83.44,23.62 82.64,24.46C81.83,25.32 80.88,27.16 82.35,28.38Z" style="fill:rgb(33,33,33);fill-rule:nonzero;"/>
    <path d="M88.2,34.23C88.59,36.08 87.11,37.44 84.76,37.86C82.4,38.28 81.22,37.48 80.89,36.02C80.56,34.56 81.64,33.05 83.34,32.53C85.04,32.01 87.73,32.01 88.2,34.23Z" style="fill:rgb(33,33,33);fill-rule:nonzero;"/>
    <path d="M78.69,45.73C78.78,47.9 81.05,48.43 82.75,48.28C84.92,48.09 86.62,47.1 86.57,45.4C86.52,43.7 84.94,42.66 82.51,42.71C80.43,42.76 78.58,43.37 78.69,45.73Z" style="fill:rgb(33,33,33);fill-rule:nonzero;"/>
    <path d="M80.65,53.48C79.92,55 80.74,56.45 82.49,57.21C84.24,57.96 86.59,57.45 86.92,55.98C87.25,54.52 86.45,52.87 84.47,52.35C82.49,51.83 81.26,52.21 80.65,53.48Z" style="fill:rgb(33,33,33);fill-rule:nonzero;"/>
    <path d="M72.53,56.83C71.29,58.32 71.92,60.09 73.85,61.83C75.78,63.57 78.07,63.74 79.23,62.4C80.69,60.7 79.04,58.34 77.39,57.02C75.74,55.7 73.48,55.7 72.53,56.83Z" style="fill:rgb(33,33,33);fill-rule:nonzero;"/>
    <path d="M64.37,63.53C62.51,65.13 63.66,67.45 65.03,69.14C66.4,70.84 68.66,71.5 70.08,70.27C71.5,69.04 71.31,66.64 69.14,64.51C67.39,62.81 65.69,62.4 64.37,63.53Z" style="fill:rgb(33,33,33);fill-rule:nonzero;"/>
    <path d="M56.82,70.51C54.74,71.11 54.93,73.29 55.36,75.04C55.78,76.79 57.45,78.23 58.99,77.68C60.59,77.11 61.02,75.79 60.55,73.53C60.08,71.27 58.29,70.09 56.82,70.51Z" style="fill:rgb(33,33,33);fill-rule:nonzero;"/>
    <path d="M50.69,69C48.98,68.84 47.91,70.09 47.39,72.21C46.87,74.33 47.91,76.22 49.65,76.41C51.39,76.6 52.72,74.95 52.86,72.68C53,70.41 52.2,69.14 50.69,69Z" style="fill:rgb(33,33,33);fill-rule:nonzero;"/>
    <path d="M43.24,71.46C40.84,70.29 39.28,72.64 38.71,73.87C38.14,75.1 37.62,77.97 39.56,78.82C41.49,79.67 43.21,77.73 43.9,76.18C44.65,74.48 44.89,72.26 43.24,71.46Z" style="fill:rgb(33,33,33);fill-rule:nonzero;"/>
    <path d="M31.49,76.5C33,78.01 34.97,76.24 35.41,75.7C36.12,74.8 36.13,73.33 35.41,72.54C34.47,71.5 32.96,71.93 32.01,72.68C31.06,73.44 30.31,75.32 31.49,76.5Z" style="fill:rgb(33,33,33);fill-rule:nonzero;"/>
    <path d="M32.24,66.64C30.98,66.86 29.5,67.82 29.83,69.42C30.16,71.02 31.53,71.5 33.18,71.17C34.83,70.84 35.73,69.33 35.54,68.15C35.36,66.97 33.56,66.41 32.24,66.64Z" style="fill:rgb(33,33,33);fill-rule:nonzero;"/>
    <path d="M30.26,60.09C30.18,61.93 31.87,62.76 34.41,62.97C37.85,63.25 39.28,61.92 39.32,59.81C39.36,57.87 37.57,56.93 34.79,56.98C32.01,57.03 30.36,57.92 30.26,60.09Z" style="fill:rgb(33,33,33);fill-rule:nonzero;"/>
    <path d="M32,48.86C31.12,50.23 32.05,52.59 34.04,52.82C36.04,53.05 37.5,51.23 36.84,49.28C36.18,47.32 33.27,46.89 32,48.86Z" style="fill:rgb(33,33,33);fill-rule:nonzero;"/>
    <path d="M35.78,40.74C34.51,42.82 35.97,44.75 38.61,45.98C40.91,47.05 42.67,46.83 43.56,45.46C44.46,44.09 43.75,41.97 41.67,40.65C39.28,39.12 37,38.76 35.78,40.74Z" style="fill:rgb(33,33,33);fill-rule:nonzero;"/>
    <path d="M46.49,34.04C45.3,34.7 44.22,36.59 46.21,39.32C47.58,41.21 49.7,41.54 50.79,40.92C51.73,40.39 52.25,37.9 51.03,36.01C49.99,34.44 48.1,33.15 46.49,34.04Z" style="fill:rgb(33,33,33);fill-rule:nonzero;"/>
    <path d="M54.84,27.67C53.23,27.89 52.53,30.17 53.09,31.82C53.61,33.33 54.74,34.37 56.35,34.04C57.95,33.71 58.1,31.45 57.95,30.6C57.81,29.75 56.96,27.39 54.84,27.67Z" style="fill:rgb(33,33,33);fill-rule:nonzero;"/>
</svg>
